X:145
T:Be Quick for I am in haste. Le4.145
Q:3/8=100
L:1/8
B:L.Leadley MS#4 c1850
Z:vmp.Mike Hicken 2016 www.village-music-project.org.uk
N:Tune 80 in "The Fiddler of Helperby"
N: * These notes are shown as crotchets in the original but have been changed to quavers to give the correct repeats.
N: ** This note is shown as a crotchet in the original but has been changed to a quaver to give the correct bar length.
N: *** This note is shown as C sharp in Helperby. In the image of the photocopy that I am using there is what looks to be
N: a sharp sign after the note but it is not very clear so it could be either.
M:6/8
K:G
"*"d|ded B2g|d2B G2G|A2B cBA|G3 F2d|
ded B2g|d2B G2B|A2B "***"c2e|d3 d2:|
|: "*"d|ded B2d| c2A d2B|c2d e2a|g3 f2d|
g2 "**"B cde|d2F G2c|ABc d2F G3 G2 :|

